Numix-GalliumOS/64/actions/split.svg

<?xml version="1.0" encoding="UTF-8" standalone="no"?>
<svg
   xmlns:dc="http://purl.org/dc/elements/1.1/"
   xmlns:cc="http://creativecommons.org/ns#"
   xmlns:rdf="http://www.w3.org/1999/02/22-rdf-syntax-ns#"
   xmlns:svg="http://www.w3.org/2000/svg"
   xmlns="http://www.w3.org/2000/svg"
   xmlns:sodipodi="http://sodipodi.sourceforge.net/DTD/sodipodi-0.dtd"
   xmlns:inkscape="http://www.inkscape.org/namespaces/inkscape"
   width="64"
   height="64"
   viewBox="0 0 64 64"
   id="svg2"
   version="1.1"
   inkscape:version="0.91 r13725"
   sodipodi:docname="split.svg">
  <metadata
     id="metadata10">
    <rdf:RDF>
      <cc:Work
         rdf:about="">
        <dc:format>image/svg+xml</dc:format>
        <dc:type
           rdf:resource="http://purl.org/dc/dcmitype/StillImage" />
        <dc:title></dc:title>
      </cc:Work>
    </rdf:RDF>
  </metadata>
  <defs
     id="defs8" />
  <sodipodi:namedview
     pagecolor="#ffffff"
     bordercolor="#666666"
     borderopacity="1"
     objecttolerance="10"
     gridtolerance="10"
     guidetolerance="10"
     inkscape:pageopacity="0"
     inkscape:pageshadow="2"
     inkscape:window-width="1366"
     inkscape:window-height="704"
     id="namedview6"
     showgrid="false"
     inkscape:zoom="4.6572018"
     inkscape:cx="6.8059049"
     inkscape:cy="32"
     inkscape:window-x="0"
     inkscape:window-y="27"
     inkscape:window-maximized="1"
     inkscape:current-layer="svg2" />
  <path
     style="opacity:1;fill:#268bd2;fill-opacity:1;stroke:none;stroke-width:1.5;stroke-linecap:round;stroke-linejoin:round;stroke-miterlimit:4;stroke-dasharray:none;stroke-opacity:1"
     d="M 48,4 60,16 36,16 Z"
     id="rect4142"
     inkscape:connector-curvature="0"
     sodipodi:nodetypes="cccc" />
  <rect
     style="opacity:1;fill:#268bd2;fill-opacity:1;stroke:none;stroke-width:1.5;stroke-linecap:round;stroke-linejoin:round;stroke-miterlimit:4;stroke-dasharray:none;stroke-opacity:1"
     id="rect4149"
     width="8"
     height="16.000124"
     x="44"
     y="12" />
  <rect
     style="opacity:1;fill:#268bd2;fill-opacity:1;stroke:none;stroke-width:1.5;stroke-linecap:round;stroke-linejoin:round;stroke-miterlimit:4;stroke-dasharray:none;stroke-opacity:1"
     id="rect4151"
     width="8"
     height="16"
     x="11.999999"
     y="12" />
  <path
     sodipodi:nodetypes="cccc"
     inkscape:connector-curvature="0"
     id="path4149"
     d="M 16,4 28,16 4,16 Z"
     style="opacity:1;fill:#268bd2;fill-opacity:1;stroke:none;stroke-width:1.5;stroke-linecap:round;stroke-linejoin:round;stroke-miterlimit:4;stroke-dasharray:none;stroke-opacity:1" />
  <path
     style="color:#000000;font-style:normal;font-variant:normal;font-weight:normal;font-stretch:normal;font-size:medium;line-height:normal;font-family:sans-serif;text-indent:0;text-align:start;text-decoration:none;text-decoration-line:none;text-decoration-style:solid;text-decoration-color:#000000;letter-spacing:normal;word-spacing:normal;text-transform:none;direction:ltr;block-progression:tb;writing-mode:lr-tb;baseline-shift:baseline;text-anchor:start;white-space:normal;clip-rule:nonzero;display:inline;overflow:visible;visibility:visible;opacity:1;isolation:auto;mix-blend-mode:normal;color-interpolation:sRGB;color-interpolation-filters:linearRGB;solid-color:#000000;solid-opacity:1;fill:#268bd2;fill-opacity:1;fill-rule:evenodd;stroke:none;stroke-width:2;stroke-linecap:butt;stroke-linejoin:miter;stroke-miterlimit:4;stroke-dasharray:none;stroke-dashoffset:0;stroke-opacity:1;color-rendering:auto;image-rendering:auto;shape-rendering:auto;text-rendering:auto;enable-background:accumulate"
     d="M 17.656248,22.343876 12,28.000124 l 16,16 L 28,60 l 8,0 0,-15.999876 16,-16 L 46.343752,22.343876 32,36.687624 Z"
     id="path4151"
     inkscape:connector-curvature="0"
     sodipodi:nodetypes="cccccccccc" />
</svg>

<svg xmlns="http://www.w3.org/2000/svg" viewBox="0 0 64 64">
 <path d="m 48 4 12 12 -24 0" style="fill:#268bd2;opacity:1;fill-opacity:1;stroke:none"/>
 <rect width="8" height="16" x="44" y="12" style="fill:#268bd2;opacity:1;fill-opacity:1;stroke:none"/>
 <rect width="8" height="16" x="12" y="12" style="fill:#268bd2;opacity:1;fill-opacity:1;stroke:none"/>
 <path d="m 16 4 12 12 -24 0" style="fill:#268bd2;opacity:1;fill-opacity:1;stroke:none"/>
 <path d="m 17.656 22.344 -5.656 5.656 l 16 16 l 0 16 l 8 0 0 -16 16 -16 l -5.656 -5.656 -14.344 14.344" mix-blend-mode="normal" isolation="auto" white-space="normal" solid-opacity="1" solid-color="#000000" style="visibility:visible;shape-rendering:auto;color-interpolation-filters:linearRGB;fill:#268bd2;opacity:1;image-rendering:auto;fill-opacity:1;stroke:none;display:inline;color:#000;fill-rule:evenodd;color-rendering:auto;color-interpolation:sRGB"/>
</svg>
